X: 25793
T: Mason's Apron, The
R: reel
M: 4/4
K: Amajor
af|:ec~c2 BFAF|EFAB cBBA|FB~B2 cBBA|cefe ~a3e|
fecB BAAF|EFAB cBBA|Bcde ~f3a|1 fecB BAAf:|2 fecB BA~A2||
BAeA fAeA|BAce faef|df ~f2 af ~f2|bfaf fecB|
BAce fcec|ABce faec|~d3e ~f3a|1 fecB BA~A2:|2 fecB BAAf||

